packages/symbols/svgs/solid/document-copy-solid.svg

<svg width="16" height="16" viewBox="0 0 16 16" xmlns="http://www.w3.org/2000/svg"><path d="M10 4H2c-.6 0-1 .4-1 1v10c0 .6.4 1 1 1h8c.6 0 1-.4 1-1V5c0-.6-.4-1-1-1Z"/><path d="M14 0H4v2h9v11h2V1c0-.6-.4-1-1-1Z"/></svg>

<svg width="16" height="16" viewBox="0 0 16 16" fill="none" xmlns="http://www.w3.org/2000/svg">
<path d="M10 4H2C1.4 4 1 4.4 1 5V15C1 15.6 1.4 16 2 16H10C10.6 16 11 15.6 11 15V5C11 4.4 10.6 4 10 4Z" fill="black"/>
<path d="M14 0H4V2H13V13H15V1C15 0.4 14.6 0 14 0Z" fill="black"/>
</svg>
